festivallovers/public/icons/socialmedia_instagram.svg

<?xml version="1.0" encoding="UTF-8" standalone="no"?>
<svg width="24px" height="24px" viewBox="0 0 24 24" version="1.1" xmlns="http://www.w3.org/2000/svg" xmlns:xlink="http://www.w3.org/1999/xlink">
    <!-- Generator: Sketch 39.1 (31720) - http://www.bohemiancoding.com/sketch -->
    <title>socialmedia_instagram</title>
    <desc>Created with Sketch.</desc>
    <defs></defs>
    <g id="Icons" stroke="none" stroke-width="1" fill="none" fill-rule="evenodd">
        <g id="socialmedia_instagram" transform="translate(-12.000000, -12.000000)" fill="#000000">
            <g transform="translate(12.000000, 12.000000)">
                <path d="M16.8207826,0 L7.13721739,0 C3.20173913,0 0,3.20173913 0,7.13721739 L0,16.8207826 C0,20.7562609 3.20173913,23.958 7.13721739,23.958 L16.8207826,23.958 C20.7562609,23.958 23.958,20.7562609 23.958,16.8207826 L23.958,7.13721739 C23.9579565,3.20173913 20.7562174,0 16.8207826,0 L16.8207826,0 Z M21.5478261,16.8207826 C21.5478261,19.4314348 19.4314348,21.5478261 16.8207826,21.5478261 L7.13721739,21.5478261 C4.52656522,21.5478261 2.41017391,19.4314348 2.41017391,16.8207826 L2.41017391,7.13721739 C2.41017391,4.52652174 4.52656522,2.41017391 7.13721739,2.41017391 L16.8207826,2.41017391 C19.4314348,2.41017391 21.5478261,4.52652174 21.5478261,7.13721739 L21.5478261,16.8207826 L21.5478261,16.8207826 L21.5478261,16.8207826 Z" id="XMLID_17_"></path>
                <path d="M11.979,5.7826087 C8.56230435,5.7826087 5.7826087,8.56230435 5.7826087,11.9789565 C5.7826087,15.3956087 8.56230435,18.1753478 11.979,18.1753478 C15.3956957,18.1753478 18.1753913,15.3956522 18.1753913,11.9789565 C18.1753913,8.56226087 15.3956957,5.7826087 11.979,5.7826087 L11.979,5.7826087 Z M11.979,15.7652174 C9.88791304,15.7652174 8.19278261,14.070087 8.19278261,11.979 C8.19278261,9.88791304 9.88795652,8.19278261 11.979,8.19278261 C14.070087,8.19278261 15.7652174,9.88791304 15.7652174,11.979 C15.7652174,14.0700435 14.0700435,15.7652174 11.979,15.7652174 L11.979,15.7652174 Z" id="XMLID_81_"></path>
                <circle id="XMLID_83_" cx="18.1872174" cy="5.82921739" r="1.48473913"></circle>
            </g>
        </g>
    </g>
</svg>

<?xml version="1.0" encoding="utf-8"?>
<!-- Generator: Adobe Illustrator 22.1.0, SVG Export Plug-In . SVG Version: 6.00 Build 0)  -->
<svg version="1.1" id="Ebene_1" xmlns="http://www.w3.org/2000/svg" xmlns:xlink="http://www.w3.org/1999/xlink" x="0px" y="0px"
	 viewBox="0 0 24 24" style="enable-background:new 0 0 24 24;" xml:space="preserve">
<style type="text/css">
	.st0{fill:#767676;}
</style>
<title>socialmedia_instagram</title>
<desc>Created with Sketch.</desc>
<g id="Icons">
	<g id="socialmedia_instagram" transform="translate(-12.000000, -12.000000)">
		<g transform="translate(12.000000, 12.000000)">
			<path id="XMLID_17_" class="st0" d="M16.8,0H7.1C3.2,0,0,3.2,0,7.1v9.7C0,20.8,3.2,24,7.1,24h9.7c3.9,0,7.1-3.2,7.1-7.1V7.1
				C24,3.2,20.8,0,16.8,0L16.8,0z M21.5,16.8c0,2.6-2.1,4.7-4.7,4.7H7.1c-2.6,0-4.7-2.1-4.7-4.7V7.1c0-2.6,2.1-4.7,4.7-4.7h9.7
				c2.6,0,4.7,2.1,4.7,4.7V16.8L21.5,16.8L21.5,16.8z"/>
			<path id="XMLID_81_" class="st0" d="M12,5.8c-3.4,0-6.2,2.8-6.2,6.2s2.8,6.2,6.2,6.2s6.2-2.8,6.2-6.2S15.4,5.8,12,5.8L12,5.8z
				 M12,15.8c-2.1,0-3.8-1.7-3.8-3.8S9.9,8.2,12,8.2c2.1,0,3.8,1.7,3.8,3.8C15.8,14.1,14.1,15.8,12,15.8L12,15.8z"/>
			<circle id="XMLID_83_" class="st0" cx="18.2" cy="5.8" r="1.5"/>
		</g>
	</g>
</g>
</svg>
